X:5
T:AIR V. Bush aboon Traquair.
B:Joseph Mitchell: "The Highland Fair" (1731)
Z:Jack Campin <http://www.campin.me.uk/>
M:C|
L:1/8
K:D
D| F2  A2   d3    f|(ed)  (e/f/g) e3G| F2  A2  (d>e d)(c/B/)|(A3 B)    D3
D|(GF) A2  (d2  e)f|(ed)  (e/f/g) e3A|(GF) A2  (d>e d)(c/B/)|(A3 B)    D3||
d|(cB)(AB) (cd)(ef)|(ga/g/ f>)g   e3A|(de)(fg) (a>ba>)g     |(f3 g/e/) d3
d|(cB)(AB) (cd)(ef)|(ga/g/ f>)g   e3G|(GF) A2  (f>e d)(c/B/)|(A3 B)    D3|]
